<?xml version="1.0" encoding="UTF-8"?>
<map version="1.10" tiledversion="1.10.2" orientation="orthogonal" renderorder="right-down" width="20" height="16" tilewidth="16" tileheight="16" infinite="0" nextlayerid="11" nextobjectid="100">
 <tileset firstgid="1" source="../../baseline/tilesets/basic.tsx"/>
 <layer id="1" name="ground" width="20" height="16">
  <data encoding="csv">
2,1,1,1,1,2,1,1,1,1,2,1,1,1,1,2,1,1,1,1,
1,2,1,1,1,1,2,1,1,1,4,2,1,1,1,1,2,1,1,1,
1,1,2,1,1,1,1,2,1,1,4,1,2,1,1,1,1,2,1,1,
1,1,1,2,1,1,1,1,2,4,4,1,1,2,1,1,1,1,2,1,
1,1,1,1,2,1,1,1,1,4,4,1,1,1,2,1,1,1,1,2,
2,1,1,1,1,2,1,1,1,4,4,1,1,1,1,2,1,1,1,1,
1,2,1,1,1,1,2,1,1,4,4,2,1,1,1,1,2,1,1,1,
1,1,7,1,1,1,1,2,1,4,4,1,2,1,1,1,1,2,1,1,
1,1,1,2,1,1,1,1,2,4,4,1,1,2,1,1,1,1,2,1,
1,1,1,1,2,1,1,1,1,4,4,1,1,1,2,1,1,7,1,2,
2,1,1,1,1,2,1,1,1,4,4,1,1,1,1,2,1,1,1,1,
1,2,1,1,1,1,2,1,1,4,4,2,1,1,1,1,2,1,1,1,
1,1,2,1,1,1,1,2,1,4,4,1,2,1,1,1,1,2,1,1,
1,1,1,2,1,1,7,1,2,4,4,1,1,2,1,1,1,1,2,1,
1,1,1,1,2,1,1,1,1,4,4,1,1,1,2,1,1,1,1,2,
2,1,1,1,1,2,1,1,1,1,2,1,1,1,1,2,1,1,1,1
  </data>
 </layer>
 <layer id="2" name="walls" width="20" height="16">
  <data encoding="csv">
9,9,9,9,9,9,9,9,9,9,13,9,9,9,9,9,9,9,9,9,
21,0,0,0,0,0,0,0,0,0,0,0,0,0,0,0,0,0,0,21,
21,0,0,0,0,0,0,0,0,0,0,0,0,0,0,0,0,0,0,21,
21,0,0,17,0,0,0,0,0,0,0,0,0,0,0,0,0,0,0,21,
21,0,0,0,0,0,0,0,0,0,0,0,0,0,0,0,17,0,0,21,
21,0,0,0,0,0,0,19,0,0,0,0,0,0,0,0,0,0,0,21,
21,0,0,0,0,0,0,0,0,0,0,0,0,0,0,0,0,0,0,21,
21,0,0,0,0,0,0,0,0,0,0,0,0,0,0,0,0,0,0,21,
21,0,0,0,0,0,0,0,0,0,0,0,0,0,19,0,0,0,0,21,
21,0,0,0,0,0,0,0,0,0,0,0,0,0,0,0,0,0,0,21,
21,0,0,0,0,0,0,0,0,0,0,0,0,0,0,0,0,0,0,21,
21,0,0,0,0,0,0,0,0,0,0,0,0,0,0,0,0,0,0,21,
21,0,0,0,17,0,0,0,0,0,0,0,23,0,0,17,0,0,0,21,
21,0,0,0,0,0,0,0,0,0,0,0,0,0,0,0,0,0,0,21,
21,0,0,0,0,0,0,0,0,0,0,0,0,0,0,0,0,0,0,21,
21,20,20,20,20,20,20,20,20,0,0,20,20,20,20,20,20,20,20,21
  </data>
 </layer>
 <layer id="3" name="collision" width="20" height="16" visible="0">
  <data encoding="csv">
1,1,1,1,1,1,1,1,1,1,0,1,1,1,1,1,1,1,1,1,
1,0,0,0,0,0,0,0,0,0,0,0,0,0,0,0,0,0,0,1,
1,0,0,0,0,0,0,0,0,0,0,0,0,0,0,0,0,0,0,1,
1,0,0,1,0,0,0,0,0,0,0,0,0,0,0,0,0,0,0,1,
1,0,0,0,0,0,0,0,0,0,0,0,0,0,0,0,1,0,0,1,
1,0,0,0,0,0,0,1,0,0,0,0,0,0,0,0,0,0,0,1,
1,0,0,0,0,0,0,0,0,0,0,0,0,0,0,0,0,0,0,1,
1,0,0,0,0,0,0,0,0,0,0,0,0,0,0,0,0,0,0,1,
1,0,0,0,0,0,0,0,0,0,0,0,0,0,1,0,0,0,0,1,
1,0,0,0,0,0,0,0,0,0,0,0,0,0,0,0,0,0,0,1,
1,0,0,0,0,0,0,0,0,0,0,0,0,0,0,0,0,0,0,1,
1,0,0,0,0,0,0,0,0,0,0,0,0,0,0,0,0,0,0,1,
1,0,0,0,1,0,0,0,0,0,0,0,1,0,0,1,0,0,0,1,
1,0,0,0,0,0,0,0,0,0,0,0,0,0,0,0,0,0,0,1,
1,0,0,0,0,0,0,0,0,0,0,0,0,0,0,0,0,0,0,1,
1,1,1,1,1,1,1,1,1,0,0,1,1,1,1,1,1,1,1,1
  </data>
 </layer>
 <objectgroup id="4" name="spawn">
  <object id="1" name="start" type="Spawn" x="160" y="192" width="16" height="16"/>
  <object id="2" name="from_hall" type="Spawn" x="160" y="32" width="16" height="16"/>
 </objectgroup>
 <objectgroup id="5" name="portals">
  <object id="3" name="hall_door" type="Portal" x="160" y="0" width="16" height="16">
   <properties>
    <property name="target_map" value="gatehouse_hall"/>
    <property name="target_spawn" value="from_yard"/>
   </properties>
  </object>
 </objectgroup>
 <objectgroup id="6" name="npcs"/>
 <objectgroup id="7" name="items"/>
 <objectgroup id="8" name="activities"/>
 <objectgroup id="9" name="triggers"/>
 <objectgroup id="10" name="markers">
  <object id="10" name="keeper_post" type="Marker" x="112" y="144" width="16" height="16"/>
  <object id="11" name="hall_door" type="Marker" x="160" y="16" width="16" height="16"/>
  <object id="12" name="gate_arch" type="Marker" x="144" y="224" width="32" height="16"/>
  <object id="13" name="bench" type="Marker" x="224" y="160" width="16" height="16"/>
 </objectgroup>
</map>
